NotoEmoji/emoji_u1f526.svg

<svg enable-background="new 0 0 128 128" viewBox="0 0 128 128" xmlns="http://www.w3.org/2000/svg"><path d="m121.65 95.24-51.99-54.9c-4.27-20.83-17.45-33.15-17.45-33.15l-44.91 44.91s10.71 14.29 33.15 17.47l55.2 51.95c5.39 4.58 14.99 2.66 21.76-4.47 6.53-6.86 8.47-16.53 4.24-21.81z" fill="#2f7889"/><path d="m49.64 10c5.73 5.73 1.53 19.22-9.39 30.14s-24.41 15.12-30.14 9.39-1.52-19.22 9.39-30.14 24.41-15.11 30.14-9.39" fill="#9e740b"/><path d="m50.92 14.25c4.62 4.62-.58 15.79-10.67 25.89s-21.27 15.29-25.89 10.67-.18-16.54 9.92-26.64 22.03-14.53 26.64-9.92" fill="#ffee58"/><path d="m53.46 22.84s-3.61 10.05-12.04 18.48-18.48 12.03-18.48 12.03c-4.93-4.93-2.1-15.76 6.33-24.19s19.26-11.26 24.19-6.32" fill="#fff"/><path d="m47.71 9.72c4.99 4.99.55 17.51-9.91 27.97s-22.99 14.9-27.97 9.91-.55-17.51 9.91-27.97 22.99-14.9 27.97-9.91m4.37-2.67c-3.44-3.44-9.1-3.99-15.95-1.57-6.08 2.16-12.58 6.49-18.31 12.22s-10.07 12.23-12.22 18.31c-2.43 6.85-1.87 12.52 1.57 15.95s9.1 3.99 15.95 1.57c6.08-2.16 12.58-6.49 18.31-12.22s10.06-12.22 12.22-18.31c2.42-6.84 1.86-12.51-1.57-15.95z" fill="#80deea"/><path d="m18.31 40.72c-1.56.21-3.03.3-2.64-1.02 3.03-10.48 13.29-19.7 20.68-22.77 1.66-.69 1.02 1.66.79 3.08-.24 1.42-.63 2.25-1.38 2.65-4.11 2.17-12 8.31-14.78 16.44-.32.92-1.11 1.41-2.67 1.62z" fill="#ffff8d"/><path d="m11.25 41.02c-1.26.36-2.66 1.3-2.41.02 2.82-14.75 15.55-27.27 27.93-31.42.71-.24.69.45.38 2.44-.3 1.92-.72 2.13-1.16 2.36-7.51 3.88-18.04 11.55-22.88 24.52-.24.64-.54 1.59-1.86 2.08z" fill="#e2a610"/><path d="m80.96 72.08-10.39-9.4c-1.47-1.47-1.47-3.86 0-5.33l1.42-1.62c1.47-1.47 3.86-1.47 5.33 0l10 10c1.47 1.47 1.47 3.86 0 5.33l-1.03 1.03c-1.47 1.46-3.86 1.46-5.33-.01z" fill="#212121"/><circle cx="75.13" cy="60.22" fill="#49a4ba" r="3.28"/><path d="m54 34.54c.04 3.8 3.17 2.79 6.19 9.48 1.11 2.47 2.52 1.81 3.21.84 3.17-4.47 2.6-5.5 1.54-9.78-.84-3.35-4.33-11.66-5.87-11.94s-1.62 1.58-2.07 3.22c-1.22 4.49-3.02 6.18-3 8.18z" fill="#49a4ba"/><path d="m36.51 68.84s10.55-1.83 21.45-12.74 10.79-19.27 10.79-19.59l.84 3.67s1.45 8.64-8.8 18.89-20.59 10.44-20.59 10.44z" fill="#212121"/></svg>

<?xml version="1.0" encoding="utf-8"?>
<!-- Generator: Adobe Illustrator 25.2.3, SVG Export Plug-In . SVG Version: 6.00 Build 0)  -->
<svg version="1.1" id="Layer_1" xmlns="http://www.w3.org/2000/svg" xmlns:xlink="http://www.w3.org/1999/xlink" x="0px" y="0px"
	 viewBox="0 0 128 128" style="enable-background:new 0 0 128 128;" xml:space="preserve">
<g>
	<path style="fill:#2F7889;" d="M121.65,95.24l-51.99-54.9C65.39,19.51,52.21,7.19,52.21,7.19L7.3,52.1c0,0,10.71,14.29,33.15,17.47
		l55.2,51.95c5.39,4.58,14.99,2.66,21.76-4.47C123.94,110.19,125.88,100.52,121.65,95.24z"/>
	<path style="fill:#9E740B;" d="M49.64,10c5.73,5.73,1.53,19.22-9.39,30.14s-24.41,15.12-30.14,9.39S8.59,30.31,19.5,19.39
		S43.91,4.28,49.64,10"/>
	<path style="fill:#FFEE58;" d="M50.92,14.25c4.62,4.62-0.58,15.79-10.67,25.89S18.98,55.43,14.36,50.81s-0.18-16.54,9.92-26.64
		S46.31,9.64,50.92,14.25"/>
	<path style="fill:#FFFFFF;" d="M53.46,22.84c0,0-3.61,10.05-12.04,18.48S22.94,53.35,22.94,53.35c-4.93-4.93-2.1-15.76,6.33-24.19
		S48.53,17.9,53.46,22.84"/>
	<path style="fill:#80DEEA;" d="M47.71,9.72c4.99,4.99,0.55,17.51-9.91,27.97S14.81,52.59,9.83,47.6s-0.55-17.51,9.91-27.97
		S42.73,4.73,47.71,9.72 M52.08,7.05c-3.44-3.44-9.1-3.99-15.95-1.57c-6.08,2.16-12.58,6.49-18.31,12.22S7.75,29.93,5.6,36.01
		c-2.43,6.85-1.87,12.52,1.57,15.95s9.1,3.99,15.95,1.57c6.08-2.16,12.58-6.49,18.31-12.22s10.06-12.22,12.22-18.31
		C56.07,16.16,55.51,10.49,52.08,7.05L52.08,7.05z"/>
	<g>
		<path style="fill:#FFFF8D;" d="M18.31,40.72c-1.56,0.21-3.03,0.3-2.64-1.02c3.03-10.48,13.29-19.7,20.68-22.77
			c1.66-0.69,1.02,1.66,0.79,3.08c-0.24,1.42-0.63,2.25-1.38,2.65c-4.11,2.17-12,8.31-14.78,16.44
			C20.66,40.02,19.87,40.51,18.31,40.72z"/>
	</g>
	<g>
		<path style="fill:#E2A610;" d="M11.25,41.02L11.25,41.02c-1.26,0.36-2.66,1.3-2.41,0.02c2.82-14.75,15.55-27.27,27.93-31.42
			c0.71-0.24,0.69,0.45,0.38,2.44c-0.3,1.92-0.72,2.13-1.16,2.36c-7.51,3.88-18.04,11.55-22.88,24.52
			C12.87,39.58,12.57,40.53,11.25,41.02z"/>
	</g>
	<path style="fill:#212121;" d="M80.96,72.08l-10.39-9.4c-1.47-1.47-1.47-3.86,0-5.33l1.42-1.62c1.47-1.47,3.86-1.47,5.33,0l10,10
		c1.47,1.47,1.47,3.86,0,5.33l-1.03,1.03C84.82,73.55,82.43,73.55,80.96,72.08z"/>
	<circle style="fill:#49A4BA;" cx="75.13" cy="60.22" r="3.28"/>
	<path style="fill:#49A4BA;" d="M54,34.54c0.04,3.8,3.17,2.79,6.19,9.48c1.11,2.47,2.52,1.81,3.21,0.84c3.17-4.47,2.6-5.5,1.54-9.78
		c-0.84-3.35-4.33-11.66-5.87-11.94c-1.54-0.28-1.62,1.58-2.07,3.22C55.78,30.85,53.98,32.54,54,34.54z"/>
	<g>
		<path style="fill:#212121;" d="M36.51,68.84c0,0,10.55-1.83,21.45-12.74s10.79-19.27,10.79-19.59l0.84,3.67
			c0,0,1.45,8.64-8.8,18.89S40.2,69.51,40.2,69.51L36.51,68.84z"/>
	</g>
</g>
</svg>
